public/assets/img/bitstamp.svg

<svg width="24" height="24" viewBox="0 0 24 24" fill="none" xmlns="http://www.w3.org/2000/svg">
<path d="M12.1644 2C17.713 2 22.21 6.47656 22.21 12C22.21 17.5234 17.713 22 12.1644 22C6.61572 22 2.11871 17.5234 2.11871 12C2.11871 6.47656 6.61572 2 12.1644 2Z" fill="#159E49"/>
<path d="M14.7651 15.8513C14.5733 16.0317 14.3486 16.1705 14.1042 16.2595C13.8598 16.3485 13.6007 16.3858 13.3422 16.3694H10.5297V12.6106H13.3674C13.878 12.6052 14.3736 12.7889 14.7651 13.1287C14.9382 13.3042 15.0743 13.515 15.1648 13.7478C15.2552 13.9806 15.2979 14.2304 15.2904 14.4813C15.3132 14.7364 15.2775 14.9935 15.1862 15.2316C15.0949 15.4697 14.9506 15.682 14.7651 15.8513ZM10.5307 7.53453H13.072C13.5495 7.51563 14.0148 7.69294 14.3669 8.02789C14.549 8.18074 14.6949 8.37486 14.7933 8.59534C14.8917 8.81581 14.94 9.05675 14.9345 9.29961C14.9437 9.53116 14.9038 9.76198 14.8174 9.97573C14.7311 10.1895 14.6004 10.3809 14.4347 10.5365C14.076 10.8585 13.6131 11.0279 13.1389 11.0107H10.5297L10.5307 7.53453ZM17.0523 12.8475C16.6971 12.3164 16.1951 11.9092 15.6123 11.6797C16.0933 11.4603 16.502 11.1002 16.7885 10.6435C17.0923 10.1578 17.2486 9.58882 17.2375 9.01008C17.2308 8.55861 17.1266 8.11442 16.9327 7.71013C16.7576 7.30689 16.4935 6.95195 16.1618 6.67394C15.8187 6.35669 15.4191 6.11204 14.9855 5.95376C14.4989 5.80633 13.9932 5.73815 13.4864 5.75168H7.14154V7.40283C7.37293 7.40515 7.60161 7.45471 7.81453 7.54866C8.02744 7.64262 8.22042 7.77913 8.38245 7.95041C8.54447 8.1217 8.67237 8.32439 8.75883 8.54692C8.84529 8.76945 8.88863 9.00746 8.88637 9.24735C8.88863 9.48606 8.84552 9.72289 8.7595 9.94432C8.67347 10.1658 8.54622 10.3674 8.38501 10.5379C8.22379 10.7083 8.03178 10.8442 7.81992 10.9377C7.60806 11.0312 7.38052 11.0805 7.15028 11.0828H7.14154V12.5845C7.60879 12.5892 8.05511 12.7861 8.38233 13.132C8.70954 13.4778 8.89085 13.9442 8.88637 14.4287V14.7363C8.88427 15.2162 8.70003 15.676 8.3735 16.0161C8.04698 16.3563 7.60441 16.5495 7.14154 16.554V18.2491H13.7656C14.2935 18.2603 14.8188 18.171 15.3156 17.9857C15.7648 17.8417 16.1803 17.6024 16.5355 17.2829C16.8697 16.9758 17.1332 16.5948 17.3064 16.168C17.5064 15.7289 17.6078 15.2484 17.6028 14.7628C17.6316 14.0838 17.4505 13.413 17.0859 12.8482L17.0523 12.8475Z" fill="white"/>
</svg>

<svg width="24" height="24" fill="none" xmlns="http://www.w3.org/2000/svg"><path d="M12.164 2C17.713 2 22.21 6.477 22.21 12s-4.497 10-10.046 10C6.616 22 2.12 17.523 2.12 12S6.616 2 12.164 2Z" fill="#159E49"/><path d="M14.765 15.851c-.192.18-.416.32-.66.408a1.878 1.878 0 0 1-.763.11H10.53v-3.758h2.837a2.097 2.097 0 0 1 1.398.518c.173.175.31.386.4.619.09.233.133.482.125.733a1.68 1.68 0 0 1-.104.75c-.091.239-.235.451-.42.62Zm-4.234-8.316h2.541c.478-.02.943.158 1.295.493.182.153.328.347.426.567.099.22.147.462.142.705.009.231-.031.462-.118.676a1.58 1.58 0 0 1-.382.56 1.839 1.839 0 0 1-1.296.475h-2.61l.002-3.476Zm6.521 5.313a3.105 3.105 0 0 0-1.44-1.168c.481-.22.89-.58 1.176-1.037.304-.485.46-1.054.45-1.633a3.115 3.115 0 0 0-.305-1.3 2.812 2.812 0 0 0-.771-1.036 3.503 3.503 0 0 0-1.176-.72 4.732 4.732 0 0 0-1.5-.202H7.142v1.65c.23.003.46.053.673.147.212.094.405.23.567.401.162.172.29.374.377.597.086.222.13.46.127.7.003.24-.04.476-.127.697a1.826 1.826 0 0 1-.374.594c-.161.17-.353.306-.565.4a1.7 1.7 0 0 1-.67.145h-.008v1.502c.467.004.913.201 1.24.547.328.346.509.812.504 1.297v.307a1.86 1.86 0 0 1-.512 1.28 1.73 1.73 0 0 1-1.232.538v1.695h6.624a4.18 4.18 0 0 0 1.55-.263c.449-.144.864-.384 1.22-.703.334-.307.597-.688.77-1.115.2-.44.302-.92.297-1.405a3.278 3.278 0 0 0-.517-1.915h-.034Z" fill="#fff"/></svg>
